!! 00000] TT[WS
!!!OTL: Baimaolin maihua
!!!ARE: Asia, China, Shanxi Yuaping
!! Ethnic Group: Han
!! WI, 226 (2)
!!!SCT: J0271
!!!YEM: Copyright 1995, estate of Helmut Schaffrath.
**kern
*ICvox
*Ivox
*M2/4
*k[b-e-]
*B-:
{4bb-
4ddd
=1
8ddd
8ccc
4bb-
=2
4ddd
4gg
=3
4ff
8gg
8bb-
=4
4bb-
4ddd
=5
8aa
8ccc
4ddd
=6
4ddd
8ddd
8ccc
=7
2gg}
=8
{4bb-
4ddd
=9
8ddd
8ccc
4bb-
=10
4ddd
4gg
=11
4ff
8gg
8bb-
=12
4bb-
8dd
8cc
=13
8gg
8bb-
8bb-
8gg
=14
2ff}
=15
{8bb-
8bb-
8bb-
8gg
=16
8ff
8gg
8ff
8gg
=17
8dd
8dd
[4ff
=18
4ff]
4bb-
=19
4ddd
8ddd
8ccc
=20
4bb-
4ddd
=21
4gg
8ff
8ee-
=22
8gg
8ff
4dd}
=23
{8ddd
8ccc
[4ddd
=24
4ddd]
8ddd
8ddd
=25
8ddd
8ccc
8bb-
8gg
=26
8gg
8ff
4dd
=27
4ddd
8ddd
8ccc
=28
4.bb-
8ccc}
=29
{8fff
8ddd
8ccc
8ddd
=30
8ddd
8bb-
4ccc
=31
8bb-
8gg
4ff}
==
!!!AGN: Xiaodiao. Fengsuge
!!!ONB: ESAC (Essen Associative Code) Database: CHINA
!!!AMT: simple duple
!!!AIN: vox
!!!EED: Helmut Schaffrath
!!!EEV: 1.0
*-
!!!ONB: Tied note syntax fixed by Craig Sapp, 2004/05/03/
